!!!OTL: Froehlich in Ehren.
!!!ARE: Europa, Mitteleuropa, Deutschland
!!!SCT: A0343
!!!TXL: @@GMH
!!!YEM: Copyright 1995, estate of Helmut Schaffrath.
**kern	**text
*M4/4	*
*met(c)	*
*k[]	*
*G:ion	*
!LO:TX:a:t=jon. auf G.	!
{4dd	Frö-
=1	=1
4dd	-lich
4dd	ʒu
4ee	ſein
4dd	in
=2	=2
2cc	Eh-
4cc}	-ren
{4b	bei
=3	=3
4cc	gu-
4b	-tem
4a	kü-
4a	-len
=4	=4
2b/	wein,
4r}	.
{4a	diß
=5	=5
4a	ſoll
4b/	mir
4cc	nie-
4dd	-mand
=6	=6
2ee	wehren,
4ee}	.
{4dd	daß
=7	=7
4cc	man
4b	ſingt
4a	in
4a	ge-
=8	=8
2g	-mein:
4r}	.
{4ee	Daß
=9	=9
4ee	gu-
4ee	-ter
4dd	mut
4cc	iſt
=10	=10
4b/	hal-
4a	-ber
4b/}	leib,
{4dd	drumb
=11	=11
4ee	ich
4ee	alls
4dd	traw-
4cc	-ren
=12	=12
4b/	von
4a	mir
4b/}	treib.
{4dd	Der
=13	=13
!LO:SIC:o:2f#:v	!
4ff	ed-
4ee	-le
4dd	wei-
4cc#	-ne
=14	=14
2dd	gut
4r}	.
{4ee	er-
=15	=15
!LO:SIC:o:2f#:v	!
4ff	-fri-
4ee	-ſchet
4dd	mir
4cc#	das
=16	=16
2dd	blut,
4r}	.
{4b	er-
=17	=17
4b	-qui-
4a	-cket
4b/	mich
4cc	im
=18	=18
2dd	her-
4a}	-ʒen,
{4b/	daß
=19	=19
4b/	ich
4a	kan
4b/	frö-
4cc	-lich
=20	=20
2dd	ſcher-
4a}	-ʒen
{4cc	aus
=21	=21
4b	fri-
4cc	-ſchem
4a	frei-
4a	-en
=22	=22
2g	mut.
4r}	.
==	==
!!!GTL: Trink. und Zechlieder, incl. Fastnacht- u. Martinslieder
!!!AGN: Romanze, Ballade, Lied, Trinklied
!! J. Werlin 1646 S. 3334.
!!!ONB: ESAC (Essen Associative Code) Database: ALTDEU
!!!AMT: simple quadruple
!!!AIN: vox
!!!EED: Helmut Schaffrath
!!!EEV: 1.0
!!!AMD: Ionian
!!!URL-scan: https://rosdok.uni-rostock.de/mcrviewer/recordIdentifier/rosdok_ppn738218359/iview2/phys_0487.iview2?x=-495.6391625615763&y=44.498029571026564&scale=0.4629418472063854&rotation=0&layout=singlePageLayout&logicalDiv=log_0013
!!!ENC: Anna Maria Matuszewska
!!!EEV: 2024/13/03
*-	*-
